src/assets/filled/Messages.svg

<svg width="24" height="24" viewBox="0 0 24 24"  xmlns="http://www.w3.org/2000/svg">
<path d="M21.9999 12.86C21.9999 15.15 20.8199 17.18 18.9999 18.46L17.6599 21.41C17.3499 22.08 16.4499 22.21 15.9799 21.64L14.4999 19.86C12.6399 19.86 10.9299 19.23 9.62988 18.18L10.2299 17.47C14.8499 17.12 18.4999 13.46 18.4999 9.00002C18.4999 8.24002 18.3899 7.49002 18.1899 6.77002C20.4599 7.97002 21.9999 10.25 21.9999 12.86Z" />
<path d="M16.3 6.07C15.13 3.67 12.52 2 9.5 2C5.36 2 2 5.13 2 9C2 11.29 3.18 13.32 5 14.6L6.34 17.55C6.65 18.22 7.55 18.34 8.02 17.78L8.57 17.12L9.5 16C13.64 16 17 12.87 17 9C17 7.95 16.75 6.96 16.3 6.07ZM12 9.75H7C6.59 9.75 6.25 9.41 6.25 9C6.25 8.59 6.59 8.25 7 8.25H12C12.41 8.25 12.75 8.59 12.75 9C12.75 9.41 12.41 9.75 12 9.75Z" />
</svg>

<?xml version="1.0" encoding="UTF-8"?>
<svg width="24" height="24" viewBox="0 0 24 24" xmlns="http://www.w3.org/2000/svg">
 <path d="m22 12.86c0 2.29-1.18 4.32-3 5.6l-1.34 2.95c-0.31 0.67-1.21 0.8-1.68 0.23l-1.48-1.78c-1.86 0-3.57-0.63-4.87-1.68l0.60002-0.71c4.62-0.35 8.27-4.01 8.27-8.47 0-0.76-0.11-1.51-0.31-2.23 2.27 1.2 3.81 3.48 3.81 6.09z"/>
 <path d="m16.3 6.07c-1.17-2.4-3.78-4.07-6.8-4.07-4.14 0-7.5 3.13-7.5 7 0 2.29 1.18 4.32 3 5.6l1.34 2.95c0.31 0.67 1.21 0.79 1.68 0.23l0.55-0.66 0.93-1.12c4.14 0 7.5-3.13 7.5-7 0-1.05-0.25-2.04-0.7-2.93zm-4.3 3.68h-5c-0.41 0-0.75-0.34-0.75-0.75s0.34-0.75 0.75-0.75h5c0.41 0 0.75 0.34 0.75 0.75s-0.34 0.75-0.75 0.75z"/>
</svg>
